epam-assets/icon-sources/18/action-drag_corner.svg

<svg width="18" height="18" viewBox="0 0 18 18" fill="none" xmlns="http://www.w3.org/2000/svg">
<g id="18/action-drag_corner">
<path id="icon" fill-rule="evenodd" clip-rule="evenodd" d="M16.5 16.5H13.5V13.5H16.5V16.5ZM16.5 10.5H13.5V7.5H16.5V10.5ZM10.5 16.5H7.5V13.5H10.5V16.5ZM10.5 10.5H7.5V7.5H10.5V10.5ZM4.5 16.5H1.5V13.5H4.5V16.5ZM16.5 4.5H13.5V1.5H16.5V4.5Z" fill="#6C6F80"/>
</g>
</svg>

<svg xmlns="http://www.w3.org/2000/svg" width="18" height="18" fill="none" viewBox="0 0 18 18">
  <path fill="#6C6F80" fill-rule="evenodd" d="M16.5 16.5h-3v-3h3v3Zm0-6h-3v-3h3v3Zm-6 6h-3v-3h3v3Zm0-6h-3v-3h3v3Zm-6 6h-3v-3h3v3Zm12-12h-3v-3h3v3Z" clip-rule="evenodd"/>
</svg>
